64x64/apps/com.jetbrains.GoLand.svg

<svg height="64" width="64" xmlns="http://www.w3.org/2000/svg"><path d="m4 33v25.2c0 1.55 1.25 2.8 2.8 2.8h50.4c1.55 0 2.8-1.25 2.8-2.8v-25.2z" opacity=".2"/><path d="m32 4h-25.2a2.794 2.794 0 0 0 -2.8 2.8v25.2h28z" fill="#6655e4"/><path d="m32 4h25.2c1.551 0 2.8 1.249 2.8 2.8v25.2h-28z" fill="#21d789"/><path d="m32 60h-25.2a2.794 2.794 0 0 1 -2.8-2.8v-25.2h28z" fill="#2086e7"/><path d="m32 60h25.2c1.551 0 2.8-1.249 2.8-2.8v-25.2h-28z" fill="#6655e4"/><path d="m12 12h40v40h-40z" fill="#17191e"/><g fill="none" stroke-linecap="round" stroke-width="4"><path d="m18.028 47h16" opacity=".2" stroke="#000"/><path d="m18.028 46h16" stroke="#f4f4f7"/><path d="m24 29h4m-2 0s.982 6-4 6c-4 0-4-4-4-8s0-8 4-8 3.985 2 3.985 2" opacity=".2" stroke="#000" stroke-linejoin="bevel"/><path d="m24 28h4m-2 0s.982 6-4 6c-4 0-4-4-4-8s0-8 4-8 3.985 2 3.985 2" stroke="#f4f4f7" stroke-linejoin="bevel"/></g><path d="m39 17c-3.324 0-6 2.676-6 6v8c0 3.324 2.676 6 6 6s6-2.676 6-6v-8c0-3.324-2.676-6-6-6zm0 4c1.108 0 2 0 2 3.598v4.804c0 3.598-.892 3.598-2 3.598s-2 0-2-3.598v-4.804c0-3.598.892-3.598 2-3.598z" fill-rule="evenodd" opacity=".2"/><path d="m39 16c-3.324 0-6 2.676-6 6v8c0 3.324 2.676 6 6 6s6-2.676 6-6v-8c0-3.324-2.676-6-6-6zm0 4c1.108 0 2 0 2 3.598v4.804c0 3.598-.892 3.598-2 3.598s-2 0-2-3.598v-4.804c0-3.598.892-3.598 2-3.598z" fill="#f4f4f7" fill-rule="evenodd"/><path d="m6.8 4c-1.55 0-2.8 1.25-2.8 2.8v1c0-1.55 1.25-2.8 2.8-2.8h50.4c1.55 0 2.8 1.25 2.8 2.8v-1c0-1.55-1.25-2.8-2.8-2.8z" fill="#f4f4f7" opacity=".2"/></svg>

<svg height="64" width="64" xmlns="http://www.w3.org/2000/svg">
    <path d="M4 33v25.2C4 59.75 5.25 61 6.8 61h50.4c1.55 0 2.8-1.25 2.8-2.8V33z" opacity=".2"/>
    <path d="M32 4H6.8A2.794 2.794 0 0 0 4 6.8V32h28z" fill="#6655e4"/>
    <path d="M32 4h25.2C58.751 4 60 5.249 60 6.8V32H32z" fill="#21d789"/>
    <path d="M32 60H6.8A2.794 2.794 0 0 1 4 57.2V32h28z" fill="#2086e7"/>
    <path d="M32 60h25.2c1.551 0 2.8-1.249 2.8-2.8V32H32z" fill="#6655e4"/>
    <path d="M12 12h40v40H12z" fill="#17191e"/>
    <g fill="none" stroke-linecap="round" stroke-width="4">
        <path d="M18.028 47h16" opacity=".2" stroke="#000"/>
        <path d="M18.028 46h16" stroke="#f4f4f7"/>
        <g stroke-linejoin="bevel">
            <path d="M24 29h4m-2 0s.982 6-4 6c-4 0-4-4-4-8s0-8 4-8 3.985 2 3.985 2" opacity=".2" stroke="#000"/>
            <path d="M24 28h4m-2 0s.982 6-4 6c-4 0-4-4-4-8s0-8 4-8 3.985 2 3.985 2" stroke="#f4f4f7"/>
        </g>
    </g>
    <path d="M39 17c-3.324 0-6 2.676-6 6v8c0 3.324 2.676 6 6 6s6-2.676 6-6v-8c0-3.324-2.676-6-6-6zm0 4c1.108 0 2 0 2 3.598v4.804C41 33 40.108 33 39 33s-2 0-2-3.598v-4.804C37 21 37.892 21 39 21z" fill-rule="evenodd" opacity=".2"/>
    <g fill="#f4f4f7">
        <path d="M39 16c-3.324 0-6 2.676-6 6v8c0 3.324 2.676 6 6 6s6-2.676 6-6v-8c0-3.324-2.676-6-6-6zm0 4c1.108 0 2 0 2 3.598v4.804C41 32 40.108 32 39 32s-2 0-2-3.598v-4.804C37 20 37.892 20 39 20z" fill-rule="evenodd"/>
        <path d="M6.8 4C5.25 4 4 5.25 4 6.8v1C4 6.25 5.25 5 6.8 5h50.4C58.75 5 60 6.25 60 7.8v-1C60 5.25 58.75 4 57.2 4z" opacity=".2"/>
    </g>
</svg>
